**kern
*staff3
*tb16
=1-
*clefF4
*k[f#c#g#d#]
*met(c)
*M4/4
8r
.
8r
.
4r
.
.
.
4r
.
.
.
4r
.
.
.
=2
4r
.
.
.
4B\
.
.
.
4r
.
.
.
4r
.
.
.
=3
4e\
.
.
.
4B\
.
.
.
4E\
.
.
.
4r
.
.
.
=4
1EE/ 1E/
.
.
.
.
.
.
.
.
.
.
.
.
.
.
.
=5
!!linebreak:original
1EE/ 1E/
.
.
.
.
.
.
.
.
.
.
.
.
.
.
.
=6
1EE/ 1E/
.
.
.
.
.
.
.
.
.
.
.
.
.
.
.
=7
1EE/ 1E/
.
.
.
.
.
.
.
.
.
.
.
.
.
.
.
=8
!!linebreak:original
2F#\
.
.
.
.
.
.
.
2FF#/
.
.
.
.
.
.
.
=9
4BBB/ 4BB/
.
.
.
2BBB#/ 2BB#/
.
.
.
.
.
.
.
4CC#/ 4C#/
.
.
.
=10
2.AAA/ 2.AA/
.
.
.
.
.
.
.
.
.
.
.
4AAA#/ 4AA#/
.
.
.
=11
!!linebreak:original
2.BBB/ 2.BB/
.
.
.
.
.
.
.
.
.
.
.
4r
.
.
.
=12
4r
.
.
.
4EE/ 4E/
.
.
.
4AA/
.
.
.
4r
.
.
.
=13
4r
.
.
.
4DD#/ 4D#/
.
.
.
4GGn/
.
.
.
4r
.
.
.
=14
!!linebreak:original
1FF#/ 1F#/
.
.
.
.
.
.
.
.
.
.
.
.
.
.
.
=15
1FF#/ 1F#/
.
.
.
.
.
.
.
.
.
.
.
.
.
.
.
=16
8r
.
8BB/L
.
8BB/
.
8BB/J
.
4BB/
.
.
.
4r
.
.
.
=17
!!linebreak:original
8r
.
8BB/L
.
8BB/
.
8BB/J
.
4BB/
.
.
.
4r
.
.
.
=18
2.FF#\ 2.E\
.
.
.
.
.
.
.
.
.
.
.
4BB\
.
.
.
=19
*^
8E/L 8G#/L	4.EE\
.	.
8G#/ 8B/	.
.	.
8F##/ 8A#/ 8c#/	.
.	.
8F#/J 8An/J 8d#/J	8BBB\
.	.
4E/ 4G#/ 4e/	4EE\
.	.
.	.
.	.
*v	*v
8r
.
8r
.
==
*-
